src/16/actions/format-line-spacing-double.svg

<svg xmlns="http://www.w3.org/2000/svg" width="16" height="16"><defs><style id="current-color-scheme" type="text/css"></style></defs><path d="M5 3v1H2v8h3v1h9v-3H5v1H3V9h1V7H3V5h2v1h9V3H5z" fill="currentColor" color="#565656"/></svg>

<svg xmlns="http://www.w3.org/2000/svg" width="16" height="16" viewBox="0 0 16 16">
 <defs>
  <style id="current-color-scheme" type="text/css">
   .ColorScheme-Text { color:#565656; } .ColorScheme-Highlight { color:#5294e2; }
  </style>
 </defs>
 <path style="fill:currentColor" class="ColorScheme-Text" d="M 5 3 L 5 4 L 2 4 L 2 12 L 5 12 L 5 13 L 14 13 L 14 10 L 5 10 L 5 11 L 3 11 L 3 9 L 4 9 L 4 7 L 3 7 L 3 5 L 5 5 L 5 6 L 14 6 L 14 3 L 5 3 z"/>
</svg>
